src/actions/24/align-vertical-bottom.svg

<svg viewBox="0 0 24 24" xmlns="http://www.w3.org/2000/svg">
 <defs>
  <style type="text/css">.ColorScheme-Text {
        color:#2e3440;
      }</style>
 </defs>
 <path class="ColorScheme-Text" d="m14 4v13h6v-13h-6zm1 1h4v11h-4v-11zm-11 6v6h6v-6h-6zm1 1h4v4h-4v-4zm-1 7v1h16v-1h-16z" fill="currentColor"/>
</svg>

<svg xmlns="http://www.w3.org/2000/svg" viewBox="0 0 24 24">
  <defs id="defs3051">
    <style type="text/css" id="current-color-scheme">
      .ColorScheme-Text {
        color:#2e3440;
      }
      </style>
  </defs>
 <path style="fill:currentColor;fill-opacity:1;stroke:none" 
     d="M 14 4 L 14 17 L 20 17 L 20 4 L 14 4 z M 15 5 L 19 5 L 19 16 L 15 16 L 15 5 z M 4 11 L 4 17 L 10 17 L 10 11 L 4 11 z M 5 12 L 9 12 L 9 16 L 5 16 L 5 12 z M 4 19 L 4 20 L 20 20 L 20 19 L 4 19 z "
     class="ColorScheme-Text"
     />
</svg>
